!!!!SEGMENT: pl-sa--549-a-ix-29--010_kurpilnski-karol--mazur-serce-nie-slluga.krn
!!!cenid: 18xx:466
!!!COM: Kurpiński, Karol
!!!COM-rismid:
!!!CDT:
!!!CNT:
!!!OTL: Mazur serce nie sługa
!!!PDT:
!!!AGN: Secular; Mazurka
!!!SMS-siglum: PL-SA
!!!SMS-shelfmark: 549/A IX 29
!!!SMS-shelfwork: 010 W
!!!SMS-variant:
!!!SMS-altvar:
!!!NIFC-rismid: 1001068375
!!!URL-scan: http://bc.bdsandomierz.pl/dlibra/publication/1441/edition/1409/content
!!!ONB-nifc: Str. 10 (s. 1-3)
!!!key: B-
**kern	**kern
*part1	*part1
*staff2	*staff1
*I"keyb	*I"keyb
*Ipiano	*Ipiano
*ICklav	*ICklav
*clefG2	*clefG2
*k[b-e-]	*k[b-e-]
*B-:	*B-:
*M3/8	*M3/8
*>[A,A,B]	*>[A,A,B]
=1	=1
*>A	*>A
!	!LO:TX:t=P:problem:mixed beam
8r	16f/LL
.	16dd\JJ
8d/L 8f 8b-	8.dd/L
8d/J 8f 8b-	.
.	16b-/Jk
=2	=2
8r	16b-\LL
.	16ff\JJ
8d/L 8f 8b-	4ff\
8d/J 8f 8b-	.
=3	=3
8r	16dd\LL
.	16ee-\JJ
8c/L 8e- 8f 8a	8.cc\L
8c/J 8e- 8f 8a	.
.	16a\Jk
=4	=4
8r	16b-\LL
.	16dd\JJ
8B-/L 8d 8f	4dd\
8B-/J 8d 8f	.
=5	=5
8r	16f\LL
.	16dd\JJ
8d/L 8f 8b-	8.dd\L
8d/J 8f 8b-	.
.	16b-\Jk
=6	=6
8r	16gg\LL
.	16ff\JJ
8d/L 8f 8b-	4ff\
8d/J 8f 8b-	.
=7	=7
8r	16dd\LL
.	16ee-\JJ
8B-/L 8d 8f	8.dd\L
8B-/J 8d 8f	.
.	16a\Jk
=8	=8
8r	16cc\LL
.	16dd\JJ
4B-/ 4d	4b-\
=9||	=9||
8r	16f\LL
.	16a\JJ
8.c/ 8.e- 8.g	8.cc\L
16ryy	16a\Jk
=10	=10
16B-/LL	16b-\LL
16f/	16dd\JJ
16d/	4dd\
16f/	.
16d/	.
16f/JJ	.
=11	=11
16c/LL	16f\LL
16f/	16a\J
16e-/	8.cc\
16f/	.
16e-/	.
16f/JJ	16a\Jk
=12	=12
4.ryy	4g/
.	8r
=13	=13
4.ryy	4g/
.	8r
!!LO:LB:g=original
=14	=14
16d/LL	16b-\LL
16f/	16dd\JJ
16d/	4dd\
16f/	.
16d/	.
16f/JJ	.
=15||	=15||
8d/L	16f\LL
.	16dd\JJ
8d/ 8f	8.dd\L
8d/J 8f	.
.	16b-\Jk
=16	=16
*rep	*
8d/L	16gg\LL
.	16ff\JJ
8d/ 8f	4ff\
8d/J 8f	.
*Xrep	*
=17	=17
8r	16dd\LL
.	16ee-\JJ
8A/L 8c 8e- 8g	8.cc\L
8A/J 8c 8e- 8g	.
.	16a\Jk
=18	=18
8B-/L 8d 8f	16cc\LL
.	16dd\JJ
8B-/J 8d 8f	4b-\
8r	.
=19:|!	=19:|!
*>B	*>B
4qqd\	.
16B-/LL 16d	16dd\LL
16f/	16ff\JJ
16B-/ 16d	4bb-\
16f/	.
16B-/ 16d	.
16f/JJ	.
=20	=20
*rep	*
4qqd\	.
16B-/LL 16d	16dd\LL
16f/	16ff\JJ
16B-/ 16d	4bb-\
16f/	.
16B-/ 16d	.
16f/JJ	.
*Xrep	*
=21	=21
*rep	*
4qqd\	.
16B-/LL 16d	16dd\LL
16f/	16bb-\J
16B-/ 16d	8ff\
16f/	.
16B-/ 16d	16gg\L
16f/JJ	16dd\JJ
*Xrep	*
=22	=22
16A/LL 16c 16e-	16ff\LL
16f/	16ee-\JJ
16A/ 16c 16e-	4cc\
16f/	.
16A/ 16c 16e-	.
16f/JJ	.
=23	=23
*tremolo	*
16B-/LL 16d	16dd\LL
16f/	16ff\J
16B-/ 16d	8bb-\
16f/	.
16B-/ 16d	8bb-\J
16f/JJ	.
=24	=24
*rep	*
16B-/LL 16d	16bb-\LL
16f/	16ccc\J
16B-/ 16d	8bb-\
16f/	.
16B-/ 16d	8bb-\J
16f/JJ	.
*Xrep	*
=25	=25
16A/LL 16c 16e-	16bb-\LL
16f/	16eee-\JJ
16A/ 16c 16e-	8.ccc\L
16f/	.
16A/ 16c 16e-	.
16f/JJ	16aa\Jk
*Xtremolo	*
!!LO:LB:g=original
=26	=26
16B-/LL 16d	16ccc\LL
16f/JJ	16bb-\JJ
4B-/ 4d	4bb-\
==	==
*-	*-
!!!system-decoration: {(s1,s2)}
!!!ENC: Andrzej Gręziak
!!!END: 2020-06-28
!!!ENC: Marta Chmielewska
!!!END: 2022-01-04
